src/svgs/safety-vest.svg

<svg xmlns="http://www.w3.org/2000/svg" viewBox="0 0 24 24" width="512" height="512" aria-labelledby="jusafety-vest-desc jusafety-vest-title"><title id="jusafety-vest-title">Safety Vest Icon</title><desc id="jusafety-vest-desc">A picture depicting a safety vest.</desc><path d="M21 10v2h-8.5v-2H14V8h-1.5V4c3.778 0 2.833-2 4.722-2a4.017 4.017 0 012.834 1s-.945 1-.945 5c0 1.764 1.843 2.2 1.889 2zm0 7v-4h-8.5v4zm-8.5 1v2a4.065 4.065 0 003.778 2A7.054 7.054 0 0021 20v-2zm-1-1v-4H3v4zM3 18v2a7.054 7.054 0 004.722 2 4.065 4.065 0 003.778-2v-2zm7-8V8h1.5V4C7.722 4 8.667 2 6.778 2a4.017 4.017 0 00-2.834 1s.945 1 .945 5c0 1.764-1.843 2.2-1.889 2v2h8.5v-2z"/></svg>

<svg xmlns="http://www.w3.org/2000/svg" viewBox="0 0 24 24"><path d="M21,10v2H12.5V10H14V8H12.5V4c3.778,0,2.833-2,4.722-2a4.017,4.017,0,0,1,2.834,1s-.945,1-.945,5C19.111,9.764,20.954,10.2,21,10Zm0,7V13H12.5v4Zm-8.5,1v2a4.065,4.065,0,0,0,3.778,2A7.054,7.054,0,0,0,21,20V18Zm-1-1V13H3v4ZM3,18v2a7.054,7.054,0,0,0,4.722,2A4.065,4.065,0,0,0,11.5,20V18Zm7-8V8h1.5V4C7.722,4,8.667,2,6.778,2A4.017,4.017,0,0,0,3.944,3s.945,1,.945,5c0,1.764-1.843,2.2-1.889,2v2h8.5V10Z"/></svg>
